X:1
T:The Battle of Loudon Hill
M:4/4
L:1/8
K:F
 A| c3/2 d/2 cA f3/2 d/2 cA| c3/2 d/2 cAd/2-c/2B/2-A/2 GA| c3/2 d/2 cA f3/2 d/2 c3/2 B/2|\
 Ac Gc AF F| D| C3/2 F/2 AF D/2 F3/2 C3/2 A,/2| C3/2 F/2 AF DG G3/2 F/2|\
 C3/2 F/2 AF DF Cf/2-d/2| c3/2 A/2 GF/2-G/2| AF F||
